X:233
T:Thrush In the Straw
B:Music From Ireland (Bulmer & Sharpley)
Z:Nigel Gatherer
M:6/8
R:Jig
L:1/8
K:G
d|efg edB|c2 A AGE|DEG BdB|ABA ABd|efg edB|
c2 A AGE|DEG AGA|BGF G2::D|GBd gfg|age edB|ged e/f/ge|
dBA ABd|efg edB|c2 A AGE|DEG AGA|BGF G2:|
<end>
<start>
